X: 39165
T: Sweets Of May, The
R: jig
M: 6/8
K: Dmajor
a|:f2 d ecA|ded d2 e|f2 d def|gfg a2 g|
fed ecA|ded dag|fed ecA|1 d3 d2 a:|2 d3 d2||
|:^d|efe e2 d|B2 c d2 ^d|efe e2 g|b2 a g2 f|
efe e2 d|B2 c d2 ^d|eee fed|efe e2:|
|:g|a3 a^ga|A3 A2 f|g3 gfg|A2 A A/F/G/A/B/c/|
d2 A d2 e|f2 d f2 g|aAA ABc|1 ded d2:|2 ded dag||

